X:1
T:James Gibb editions
T:Benedictus - Lobo
%%score [ 1 2 3 ]
L:1/8
Q:1/4=100
M:2/2
K:C
V:1 treble nm="Soprano" snm="S"
V:2 treble nm="Alto" snm="A"
V:3 bass nm="Bass" snm="B"
V:1
"^Benedictus qui venit""^Alonso Lobo\n(1555-1617)" c6 c2 | B4 A2 d2- | d2 (c2 d2 f2- | %3
w: Be- ne-|di- ctus qui|* ve\- * *|
 f2 ed) e2 e2 | (d4 c2 c2 | e4 d2 d2 |[M:2/2] cBcd e2 A2 | d6 c2- | c2 BA B2 c2 | d4) e4 | z4 ^c4 | %11
w: * * * nit, qui|ve\- * *|||||* nit,|be-|
 d4 f4 | e2 e2 (d2 e2 | dc c4) B2 | A3 (BcA) d2- | d2 ^c2 d2 B2 | A4 z4 | G4 A2 c2- | %18
w: ne- di-|ctus qui ve\- *|* * * nit,|be- ne\- * * di\-|* ctus qui ve-|nit,|be- ne- di\-|
 c2 B2 A2 (B2- | BA G4 ^F2) | G4 z2 G2 | d6 d2 | B2 c2 (d4 | e4) d4- | d4 z2 c2 | c2 (B2 c2 d2 | %26
w: * ctus qui ve\-||nit in|no- mi-|ne Do- mi\-|* ni,|* in|no- mi\- * *|
 B2) B2 A3 (B | c)d e3 d[Q:1/4=98] d2- | %28
w: * ne Do- mi\-|* ni, Do- mi- ni,|
[Q:1/4=96] d2[Q:1/4=93] (c3[Q:1/4=91] B)[Q:1/4=90] (B[Q:1/4=90]A/[Q:1/4=89]G/ | %29
w: * Do\- * mi\- * *|
[Q:1/4=87] A4)[Q:1/4=85] B8 |] %30
w: * ni.|
V:2
 z4 C4 | D4 F4 | E2 E2 (DCDE | FGAB cG c2- | c2 B2 A4 | G2 A4 G2) |[M:2/2] A4 z2 F2- | F2 F2 E4 | %8
w: Be-|ne- di-|ctus, qui ve\- * * *||||nit, be\-|* ne- di-|
 D4 G4- | G2 (F2 G2 A2- | A2 GF) E4 | z2 G2 A4 | c4 B2 (B2 | A4) (D3 E | FEFG) A4 | z2 G2 ^F2 G2 | %16
w: ctus qui|* ve\- * *|* * * nit,|be- ne-|di- ctus qui|* ve\- *|* * * * nit,|be- ne- di-|
 (DEFD) (E2 F2- | F2) E2 F2 C2 | (D4 F4 | D2 E2 C4) | D8 | z2 G2 F2 G2 | G2 E2 (^F2 G2) | %23
w: ctus, * * * qui *|* ve- nit, qui|ve\- *||nit|in no- mi-|ne Do- mi\- *|
 C2 (c4 BA | BAGF) G2 A2 | D2 G2 (G2 F2) | G2 (D3 EFG | AF G2) A2 D2 | (E4 D2) (G2- | G2 ^F2) G8 |] %30
w: ni, Do\- * *|* * * * mi- ni,|in no- mi\- *|ne Do\- * * *|* * * mi- ni,|Do\- * mi\-|* * ni.|
V:3
 z8 | z8 | z8 | z8 | G,4 A,4 | C4 B,2 B,2 |[M:2/2] (A,G,A,B,) C2 D2 | (D,E,F,G,) A,3 G, | %8
w: ||||Be- ne-|di- ctus, qui|ve\- * * * nit, qui|ve\- * * * nit, be-|
 ^F,2 (G,2 E,4) | D,2 D2 (CB,A,G, | F,2 G,2 A,2 A,2 | _B,2 G,2 F,2 D,2 | C,D,E,F, G,2 E,2 | %13
w: ne- di\- *|ctus, qui ve\- * * *||||
 F,2 A,2) G,4 | z2 F,4 F,2 | E,4 D,2 G,2- | G,2 (F,2 G,2 A,2 | B,2 C2 F,2) A,2 | (G,A,B,C) (D3 C | %19
w: * * nit,|be- ne-|dic- tus qui|* ve\- * *|* * * nit,|qui * * * ve\- *|
 B,2 C2 A,4) | G,8- | G,4 z4 | z8 | C,4 G,4- | G,2 G,2 E,2 (F,2 | G,4) (A,2 D,2) | G,4 z2 F,2 | %27
w: |nit|||in no\-|* mi- ne Do\-|* mi\- *|ni, in|
 F,2 E,2 F,2 (G,2 | E,D,E,F,) (G,4 | D,4) G,8 |] %30
w: no- mi- ne Do\-|* * * * mi\-|* ni.|

